svg/Tango/devices/media-floppy.svg

<?xml version="1.0" encoding="UTF-8" standalone="no"?>
<!-- Created with Inkscape (http://www.inkscape.org/) -->
<svg
   xmlns:dc="http://purl.org/dc/elements/1.1/"
   xmlns:cc="http://creativecommons.org/ns#"
   xmlns:rdf="http://www.w3.org/1999/02/22-rdf-syntax-ns#"
   xmlns:svg="http://www.w3.org/2000/svg"
   xmlns="http://www.w3.org/2000/svg"
   xmlns:xlink="http://www.w3.org/1999/xlink"
   xmlns:sodipodi="http://sodipodi.sourceforge.net/DTD/sodipodi-0.dtd"
   xmlns:inkscape="http://www.inkscape.org/namespaces/inkscape"
   width="48"
   height="48"
   id="svg2"
   sodipodi:version="0.32"
   inkscape:version="0.46"
   version="1.0"
   sodipodi:docbase="/home/jimmac/src/cvs/tango-icon-theme/scalable/devices"
   sodipodi:docname="media-floppy.svg"
   inkscape:export-filename="/home/jimmac/gfx/ximian/tango-icon-theme/scalable/devices/media-floppy.png"
   inkscape:export-xdpi="90"
   inkscape:export-ydpi="90"
   inkscape:output_extension="org.inkscape.output.svg.inkscape">
  <defs
     id="defs4">
    <inkscape:perspective
       sodipodi:type="inkscape:persp3d"
       inkscape:vp_x="0 : 24 : 1"
       inkscape:vp_y="0 : 1000 : 0"
       inkscape:vp_z="48 : 24 : 1"
       inkscape:persp3d-origin="24 : 16 : 1"
       id="perspective48" />
    <radialGradient
       inkscape:collect="always"
       xlink:href="#linearGradient5060"
       id="radialGradient6719"
       gradientUnits="userSpaceOnUse"
       gradientTransform="matrix(-2.774389,0,0,1.969706,112.7623,-872.8854)"
       cx="605.71429"
       cy="486.64789"
       fx="605.71429"
       fy="486.64789"
       r="117.14286" />
    <linearGradient
       inkscape:collect="always"
       id="linearGradient5060">
      <stop
         style="stop-color:black;stop-opacity:1;"
         offset="0"
         id="stop5062" />
      <stop
         style="stop-color:black;stop-opacity:0;"
         offset="1"
         id="stop5064" />
    </linearGradient>
    <radialGradient
       inkscape:collect="always"
       xlink:href="#linearGradient5060"
       id="radialGradient6717"
       gradientUnits="userSpaceOnUse"
       gradientTransform="matrix(2.774389,0,0,1.969706,-1891.633,-872.8854)"
       cx="605.71429"
       cy="486.64789"
       fx="605.71429"
       fy="486.64789"
       r="117.14286" />
    <linearGradient
       id="linearGradient5048">
      <stop
         style="stop-color:black;stop-opacity:0;"
         offset="0"
         id="stop5050" />
      <stop
         id="stop5056"
         offset="0.5"
         style="stop-color:black;stop-opacity:1;" />
      <stop
         style="stop-color:black;stop-opacity:0;"
         offset="1"
         id="stop5052" />
    </linearGradient>
    <linearGradient
       inkscape:collect="always"
       xlink:href="#linearGradient5048"
       id="linearGradient6715"
       gradientUnits="userSpaceOnUse"
       gradientTransform="matrix(2.774389,0,0,1.969706,-1892.179,-872.8854)"
       x1="302.85715"
       y1="366.64789"
       x2="302.85715"
       y2="609.50507" />
    <linearGradient
       inkscape:collect="always"
       id="linearGradient2371">
      <stop
         style="stop-color:#000000;stop-opacity:1;"
         offset="0"
         id="stop2373" />
      <stop
         style="stop-color:#000000;stop-opacity:0;"
         offset="1"
         id="stop2375" />
    </linearGradient>
    <linearGradient
       id="linearGradient2350">
      <stop
         id="stop2352"
         offset="0"
         style="stop-color:#858585;stop-opacity:1;" />
      <stop
         style="stop-color:#cbcbcb;stop-opacity:1;"
         offset="0.5"
         id="stop2356" />
      <stop
         id="stop2354"
         offset="1"
         style="stop-color:#6b6b6b;stop-opacity:1;" />
    </linearGradient>
    <linearGradient
       inkscape:collect="always"
       id="linearGradient2277">
      <stop
         style="stop-color:#ffffff;stop-opacity:1;"
         offset="0"
         id="stop2279" />
      <stop
         style="stop-color:#ffffff;stop-opacity:0;"
         offset="1"
         id="stop2281" />
    </linearGradient>
    <linearGradient
       id="linearGradient2263">
      <stop
         style="stop-color:#1e2d69;stop-opacity:1;"
         offset="0"
         id="stop2265" />
      <stop
         style="stop-color:#78a7e0;stop-opacity:1;"
         offset="1"
         id="stop2267" />
    </linearGradient>
    <linearGradient
       inkscape:collect="always"
       xlink:href="#linearGradient2263"
       id="linearGradient2269"
       x1="40.884724"
       y1="71.869133"
       x2="16.879831"
       y2="-0.38931385"
       gradientUnits="userSpaceOnUse"
       gradientTransform="matrix(0.976612,0.000000,0.000000,1.139789,0.564215,-3.271158)" />
    <linearGradient
       inkscape:collect="always"
       xlink:href="#linearGradient2277"
       id="linearGradient2283"
       x1="13.783585"
       y1="-0.99672896"
       x2="33.074715"
       y2="55.701546"
       gradientUnits="userSpaceOnUse"
       gradientTransform="matrix(0.985432,0.000000,0.000000,1.148179,0.641070,-2.933883)" />
    <linearGradient
       inkscape:collect="always"
       xlink:href="#linearGradient2350"
       id="linearGradient2348"
       x1="20.125"
       y1="21.84375"
       x2="28.5625"
       y2="42.46875"
       gradientUnits="userSpaceOnUse"
       gradientTransform="matrix(1.067698,0.000000,0.000000,1.121532,-1.368937,-5.574460)" />
    <radialGradient
       inkscape:collect="always"
       xlink:href="#linearGradient2371"
       id="radialGradient2377"
       cx="24.3125"
       cy="41.15625"
       fx="24.3125"
       fy="41.15625"
       r="22.875"
       gradientTransform="matrix(1.000000,0.000000,0.000000,0.269126,-1.352272e-16,30.08005)"
       gradientUnits="userSpaceOnUse" />
  </defs>
  <sodipodi:namedview
     id="base"
     pagecolor="#efefef"
     bordercolor="#666666"
     borderopacity="1.0"
     inkscape:pageopacity="1"
     inkscape:pageshadow="2"
     inkscape:zoom="1"
     inkscape:cx="-125.27386"
     inkscape:cy="9.8398597"
     inkscape:document-units="px"
     inkscape:current-layer="layer1"
     inkscape:showpageshadow="false"
     showborder="true"
     borderlayer="top"
     showgrid="false"
     inkscape:grid-points="false"
     inkscape:window-width="872"
     inkscape:window-height="693"
     inkscape:window-x="502"
     inkscape:window-y="155">
    <inkscape:grid
       id="GridFromPre046Settings"
       type="xygrid"
       originx="0px"
       originy="0px"
       spacingx="1px"
       spacingy="1px"
       color="#9f9f9f"
       empcolor="#9f9f9f"
       opacity="0.10196078"
       empopacity="0.25490196"
       empspacing="10" />
  </sodipodi:namedview>
  <metadata
     id="metadata7">
    <rdf:RDF>
      <cc:Work
         rdf:about="">
        <dc:format>image/svg+xml</dc:format>
        <dc:type
           rdf:resource="http://purl.org/dc/dcmitype/StillImage" />
        <dc:title>Media Floppy</dc:title>
        <dc:creator>
          <cc:Agent>
            <dc:title>Tuomas Kuosmanen</dc:title>
          </cc:Agent>
        </dc:creator>
        <dc:source>http://www.tango-project.org</dc:source>
        <dc:subject>
          <rdf:Bag>
            <rdf:li>save</rdf:li>
            <rdf:li>document</rdf:li>
            <rdf:li>store</rdf:li>
            <rdf:li>file</rdf:li>
            <rdf:li>io</rdf:li>
            <rdf:li>floppy</rdf:li>
            <rdf:li>media</rdf:li>
          </rdf:Bag>
        </dc:subject>
        <dc:contributor>
          <cc:Agent>
            <dc:title>Jakub Steiner</dc:title>
          </cc:Agent>
        </dc:contributor>
        <cc:license
           rdf:resource="http://creativecommons.org/licenses/publicdomain/" />
      </cc:Work>
      <cc:License
         rdf:about="http://creativecommons.org/licenses/publicdomain/">
        <cc:permits
           rdf:resource="http://creativecommons.org/ns#Reproduction" />
        <cc:permits
           rdf:resource="http://creativecommons.org/ns#Distribution" />
        <cc:permits
           rdf:resource="http://creativecommons.org/ns#DerivativeWorks" />
      </cc:License>
    </rdf:RDF>
  </metadata>
  <g
     inkscape:label="Layer 1"
     inkscape:groupmode="layer"
     id="layer1">
    <g
       transform="matrix(2.415802e-2,0,0,2.086758e-2,45.237,41.6536)"
       id="g6707">
      <rect
         style="opacity:0.40206185;color:black;fill:url(#linearGradient6715);fill-opacity:1;fill-rule:nonzero;stroke:none;stroke-width:1;stroke-linecap:round;stroke-linejoin:miter;marker:none;marker-start:none;marker-mid:none;marker-end:none;stroke-miterlimit:4;stroke-dasharray:none;stroke-dashoffset:0;stroke-opacity:1;visibility:visible;display:inline;overflow:visible"
         id="rect6709"
         width="1339.6335"
         height="478.35718"
         x="-1559.2523"
         y="-150.69685" />
      <path
         style="opacity:0.40206185;color:black;fill:url(#radialGradient6717);fill-opacity:1;fill-rule:nonzero;stroke:none;stroke-width:1;stroke-linecap:round;stroke-linejoin:miter;marker:none;marker-start:none;marker-mid:none;marker-end:none;stroke-miterlimit:4;stroke-dasharray:none;stroke-dashoffset:0;stroke-opacity:1;visibility:visible;display:inline;overflow:visible"
         d="M -219.61876,-150.68038 C -219.61876,-150.68038 -219.61876,327.65041 -219.61876,327.65041 C -76.744594,328.55086 125.78146,220.48075 125.78138,88.454235 C 125.78138,-43.572302 -33.655436,-150.68036 -219.61876,-150.68038 z "
         id="path6711"
         sodipodi:nodetypes="cccc" />
      <path
         sodipodi:nodetypes="cccc"
         id="path6713"
         d="M -1559.2523,-150.68038 C -1559.2523,-150.68038 -1559.2523,327.65041 -1559.2523,327.65041 C -1702.1265,328.55086 -1904.6525,220.48075 -1904.6525,88.454235 C -1904.6525,-43.572302 -1745.2157,-150.68036 -1559.2523,-150.68038 z "
         style="opacity:0.40206185;color:black;fill:url(#radialGradient6719);fill-opacity:1;fill-rule:nonzero;stroke:none;stroke-width:1;stroke-linecap:round;stroke-linejoin:miter;marker:none;marker-start:none;marker-mid:none;marker-end:none;stroke-miterlimit:4;stroke-dasharray:none;stroke-dashoffset:0;stroke-opacity:1;visibility:visible;display:inline;overflow:visible" />
    </g>
    <path
       style="fill:url(#linearGradient2269);fill-opacity:1;stroke:#25375f;stroke-width:1.00000012;stroke-linecap:round;stroke-linejoin:round;stroke-miterlimit:4;stroke-dashoffset:0;stroke-opacity:1"
       d="M 4.5577604,3.5675797 L 43.448063,3.5675797 C 44.037357,3.5675797 44.511771,4.0419938 44.511771,4.6312883 L 44.511771,42.396499 C 44.511771,42.985793 44.037357,43.460207 43.448063,43.460207 L 6.5577604,43.460207 C 6.5577604,43.460207 3.4940519,40.396499 3.4940519,40.396499 L 3.4940519,4.6312883 C 3.4940519,4.0419938 3.9684659,3.5675797 4.5577604,3.5675797 z "
       id="rect2259"
       sodipodi:nodetypes="ccccccccc" />
    <rect
       style="opacity:1;fill:#ffffff;fill-opacity:1;stroke:none;stroke-width:1;stroke-linecap:butt;stroke-linejoin:miter;stroke-miterlimit:4;stroke-dasharray:none;stroke-dashoffset:0;stroke-opacity:1"
       id="rect2328"
       width="30"
       height="23"
       x="9"
       y="4" />
    <rect
       ry="0.12620771"
       rx="0.12620772"
       y="4"
       x="9"
       height="4"
       width="30"
       id="rect2330"
       style="opacity:1;fill:#d31c00;fill-opacity:1;stroke:none;stroke-width:1;stroke-linecap:butt;stroke-linejoin:miter;stroke-miterlimit:4;stroke-dasharray:none;stroke-dashoffset:0;stroke-opacity:1" />
    <rect
       style="opacity:0.73863639;fill:#000000;fill-opacity:1;stroke:none;stroke-width:1;stroke-linecap:butt;stroke-linejoin:miter;stroke-miterlimit:4;stroke-dasharray:none;stroke-dashoffset:0;stroke-opacity:1"
       id="rect2332"
       width="2"
       height="2"
       x="6"
       y="6"
       rx="0.12620772"
       ry="0.12620771" />
    <path
       style="opacity:0.13068182;fill:#000000;fill-opacity:1;stroke:#000000;stroke-width:1;stroke-linecap:butt;stroke-linejoin:miter;stroke-miterlimit:4;stroke-dasharray:none;stroke-dashoffset:0;stroke-opacity:1"
       d="M 11,12.5 L 37,12.5"
       id="path2334" />
    <path
       id="path2336"
       d="M 11,17.5 L 37,17.5"
       style="opacity:0.13068182;fill:#000000;fill-opacity:1;stroke:#000000;stroke-width:1;stroke-linecap:butt;stroke-linejoin:miter;stroke-miterlimit:4;stroke-dasharray:none;stroke-dashoffset:0;stroke-opacity:1" />
    <path
       style="opacity:0.13068182;fill:#000000;fill-opacity:1;stroke:#000000;stroke-width:1;stroke-linecap:butt;stroke-linejoin:miter;stroke-miterlimit:4;stroke-dasharray:none;stroke-dashoffset:0;stroke-opacity:1"
       d="M 11,22.5 L 37,22.5"
       id="path2338" />
    <path
       style="opacity:0.59659095;fill:none;fill-opacity:1;stroke:url(#linearGradient2283);stroke-width:1;stroke-linecap:round;stroke-linejoin:miter;stroke-miterlimit:4;stroke-dashoffset:0;stroke-opacity:1"
       d="M 4.6189226,4.5276647 L 43.387404,4.5276647 C 43.457323,4.5276647 43.513612,4.5839533 43.513612,4.6538724 L 43.513612,42.302111 C 43.513612,42.37203 43.457323,42.428319 43.387404,42.428319 L 6.9282818,42.428319 C 6.9282818,42.428319 4.4927149,40.036946 4.4927149,40.036946 L 4.4927149,4.6538724 C 4.4927149,4.5839533 4.5490035,4.5276647 4.6189226,4.5276647 z "
       id="rect2273"
       sodipodi:nodetypes="ccccccccc" />
    <path
       style="fill:url(#linearGradient2348);fill-opacity:1;stroke:#525252;stroke-width:0.99999946;stroke-linecap:butt;stroke-linejoin:miter;stroke-miterlimit:4;stroke-dashoffset:0;stroke-opacity:1"
       d="M 14.113967,28.562183 L 33.863791,28.562183 C 34.751762,28.562183 35.466627,29.313093 35.466627,30.245836 L 35.466627,43.447387 C 35.466627,43.447387 12.511131,43.447387 12.511131,43.447387 L 12.511131,30.245836 C 12.511131,29.313093 13.225996,28.562183 14.113967,28.562183 z "
       id="rect2340"
       sodipodi:nodetypes="ccccccc" />
    <rect
       style="opacity:1;fill:#4967a2;fill-opacity:1;stroke:#525252;stroke-width:0.99999958;stroke-linecap:butt;stroke-linejoin:miter;stroke-miterlimit:4;stroke-dasharray:none;stroke-dashoffset:0;stroke-opacity:1"
       id="rect2359"
       width="5.0297527"
       height="10.06597"
       x="16.464279"
       y="30.4566"
       rx="0.75120711"
       ry="0.75120765" />
  </g>
</svg>

<svg xmlns="http://www.w3.org/2000/svg" xmlns:xlink="http://www.w3.org/1999/xlink" viewBox="0 0 48 48"><defs><linearGradient id="5" x1="13.784" y1="-.997" x2="33.07" y2="55.702" gradientUnits="userSpaceOnUse" gradientTransform="matrix(.98543 0 0 1.14818.641-2.934)"><stop stop-color="#fff"/><stop offset="1" stop-color="#fff" stop-opacity="0"/></linearGradient><linearGradient id="4" x1="40.885" y1="71.869" x2="16.88" y2="-.389" gradientUnits="userSpaceOnUse" gradientTransform="matrix(.97661 0 0 1.13979.564-3.271)"><stop stop-color="#1e2d69"/><stop offset="1" stop-color="#78a7e0"/></linearGradient><linearGradient id="3" gradientUnits="userSpaceOnUse" gradientTransform="matrix(2.77439 0 0 1.96971-1892.18-872.89)" y1="366.65" x2="0" y2="609.51"><stop stop-opacity="0"/><stop offset=".5"/><stop offset="1" stop-opacity="0"/></linearGradient><linearGradient id="6" x1="20.12" y1="21.844" x2="28.563" y2="42.469" gradientUnits="userSpaceOnUse" gradientTransform="matrix(1.0677 0 0 1.12153-1.369-5.574)"><stop stop-color="#858585"/><stop offset=".5" stop-color="#cbcbcb"/><stop offset="1" stop-color="#6b6b6b"/></linearGradient><linearGradient id="1"><stop/><stop offset="1" stop-opacity="0"/></linearGradient><radialGradient xlink:href="#1" id="0" gradientUnits="userSpaceOnUse" gradientTransform="matrix(-2.77439 0 0 1.96971 112.76-872.89)" cx="605.71" cy="486.65" r="117.14"/><radialGradient xlink:href="#1" id="2" gradientUnits="userSpaceOnUse" gradientTransform="matrix(2.77439 0 0 1.96971-1891.63-872.89)" cx="605.71" cy="486.65" r="117.14"/></defs><g transform="matrix(.02416 0 0 .02087 45.24 41.654)" color="#000"><path opacity=".402" fill="url(#3)" d="m-1559.25-150.7h1339.63v478.36h-1339.63z"/><path d="m-219.62-150.68c0 0 0 478.33 0 478.33 142.87.9 345.4-107.17 345.4-239.2 0-132.03-159.44-239.13-345.4-239.13" opacity=".402" fill="url(#2)"/><path d="m-1559.25-150.68c0 0 0 478.33 0 478.33-142.87.9-345.4-107.17-345.4-239.2 0-132.03 159.44-239.13 345.4-239.13" opacity=".402" fill="url(#0)"/></g><path d="m4.558 3.568h38.89c.589 0 1.064.474 1.064 1.064v37.765c0 .589-.474 1.064-1.064 1.064h-36.89c0 0-3.064-3.064-3.064-3.064v-35.765c0-.589.474-1.064 1.064-1.064z" fill="url(#4)" stroke="#25375f" stroke-linejoin="round" stroke-linecap="round"/><path fill="#fff" d="m9 4h30v23h-30z"/><rect rx=".126" y="4" x="9" height="4" width="30" fill="#d31c00"/><rect width="2" height="2" x="6" y="6" rx=".126" opacity=".739"/><g stroke="#000"><path d="m11 12.5h26" opacity=".131"/><path d="m11 17.5h26" opacity=".131"/><path d="m11 22.5h26" opacity=".131"/></g><path d="m4.619 4.528h38.768c.07 0 .126.056.126.126v37.648c0 .07-.056.126-.126.126h-36.459c0 0-2.436-2.391-2.436-2.391v-35.38c0-.07.056-.126.126-.126z" opacity=".597" fill="none" stroke="url(#5)" stroke-linecap="round"/><g stroke="#525252"><path d="m14.11 28.562h19.75c.888 0 1.603.751 1.603 1.684v13.202c0 0-22.955 0-22.955 0v-13.202c0-.933.715-1.684 1.603-1.684z" fill="url(#6)"/><rect width="5.03" height="10.07" x="16.464" y="30.457" rx=".751" fill="#4967a2"/></g></svg>
